Newaita-dark/apps/32/tranquil.svg

<svg height="32pt" viewBox="0 0 32 32" width="32pt" xmlns="http://www.w3.org/2000/svg" xmlns:xlink="http://www.w3.org/1999/xlink"><linearGradient id="a"><stop offset="0" stop-opacity=".313725"/><stop offset=".222222" stop-opacity=".27451"/><stop offset="1" stop-opacity="0"/></linearGradient><radialGradient id="b" cx="450.90894" cy="189.57936" gradientTransform="matrix(.00000017 -.0781325 -.140638 -.0000001 44.523152 63.595332)" gradientUnits="userSpaceOnUse" r="21.166656" xlink:href="#a"/><radialGradient id="c" cx="450.90894" cy="189.57936" gradientTransform="matrix(-.00000017 .0781325 .140638 .0000001 -12.770121 -7.527481)" gradientUnits="userSpaceOnUse" r="21.166656" xlink:href="#a"/><radialGradient id="d" cx="450.90894" cy="189.57936" gradientTransform="matrix(-.00000017 -.0781325 .140638 -.0000001 -12.770121 63.595332)" gradientUnits="userSpaceOnUse" r="21.166656" xlink:href="#a"/><radialGradient id="e" cx="450.90894" cy="189.57936" gradientTransform="matrix(.00000017 .0781325 -.140638 .0000001 44.52315 -7.527482)" gradientUnits="userSpaceOnUse" r="21.166656" xlink:href="#a"/><linearGradient id="f" gradientTransform="matrix(.0133601 0 0 .062506 12.465386 13.438784)" gradientUnits="userSpaceOnUse" x1="255.32306" x2="255.32304" y1="233.5" y2="254.66666"><stop offset="0" stop-opacity=".27451"/><stop offset="1" stop-opacity="0"/></linearGradient><linearGradient id="g" gradientUnits="userSpaceOnUse" x1="254" x2="254" y1="-168.66667" y2="233.5"><stop offset="0" stop-color="#ba68c8"/><stop offset="1" stop-color="#ab47bc"/></linearGradient><linearGradient id="h" gradientUnits="userSpaceOnUse" x1="15.876524" x2="15.876524" y1="28.033934" y2="2.89610412498"><stop offset="0" stop-color="#ef9a9a"/><stop offset="1" stop-color="#ffcdd2"/></linearGradient><linearGradient id="i" gradientUnits="userSpaceOnUse" x1="15.87648" x2="15.87648" y1="28.0338647916" y2="2.89610363394"><stop offset="0" stop-color="#ec407a"/><stop offset="1" stop-color="#f06292"/></linearGradient><linearGradient id="j" gradientUnits="userSpaceOnUse" x1="15.87648" x2="15.87648" y1="28.0338647916" y2="2.89610363394"><stop offset="0" stop-color="#795548"/><stop offset="1" stop-color="#8d6e63"/></linearGradient><path d="m18.191406 28.035156h2.648438v-1.324218h-2.648438zm0 0" fill="url(#b)"/><path d="m13.5625 28.035156h-2.648438v1.320313h2.648438zm0 0" fill="url(#c)"/><path d="m13.5625 28.035156h-2.648438v-1.324218h2.648438zm0 0" fill="url(#d)"/><path d="m18.191406 28.035156h2.648438v1.320313h-2.648438zm0 0" fill="url(#e)"/><path d="m13.5625 27.703125h4.628906v1.652344h-4.628906zm0 0" fill="url(#f)"/><path d="m253.975747-168.691922c111.051895 0 201.105795 90.0539 201.105795 201.105795s-90.0539 201.105796-201.105795 201.105796c-111.051896 0-201.043302-90.053901-201.043302-201.105796s89.991406-201.105795 201.043302-201.105795zm0 0" fill="url(#g)" stroke="#333" stroke-linecap="round" stroke-width="3" transform="matrix(.062506 0 0 .062506 0 13.438783)"/><path d="m15.875 8.1875c4.019531 0 7.277344 3.257812 7.277344 7.277344 0 4.019531-3.257813 7.277344-7.277344 7.277344-4.015625 0-7.273438-3.257813-7.273438-7.277344 0-4.019532 3.257813-7.277344 7.273438-7.277344zm0 0" fill="url(#h)"/><path d="m15.875 8.1875c-4.03125 0-7.273438 3.246094-7.273438 7.277344 0 .082031 0 .164062.003907.25.128906-3.917969 3.324219-7.03125 7.269531-7.03125 3.949219 0 7.144531 3.113281 7.273438 7.03125.003906-.085938.003906-.167969.003906-.25 0-4.03125-3.246094-7.277344-7.277344-7.277344zm0 0" fill="#fff" fill-opacity=".392157"/><path d="m253.975747-84.012509c64.306359 0 116.426381 52.120023 116.426381 116.426382s-52.120022 116.426382-116.426381 116.426382c-64.243865 0-116.363888-52.120023-116.363888-116.426382s52.120023-116.426382 116.363888-116.426382zm0 0" fill="none" stroke="#212121" stroke-linecap="round" stroke-width="3" transform="matrix(.062506 0 0 .062506 0 13.438783)"/><path d="m9.734375 20.117188 4.15625 5.824218s2.234375.972656 4.417969 1.859375c4.238281-.824219 7.699218-3.765625 9.253906-7.683593zm0 0" fill="url(#i)"/><path d="m9.734375 20.117188.308594.4375h17.335937c.0625-.144532.125-.292969.183594-.4375zm0 0" fill="#fff" fill-opacity=".392157"/><path d="m588.605216 1216.419286 251.314586 352.171098s135.10521 58.813282 267.139847 112.43021c256.274743-49.837761 465.5461-227.694794 559.552872-464.601308zm0 0" fill="none" stroke="#212121" stroke-width="12.765609" transform="scale(.016538)"/><path d="m3.882812 11.683594c-.375 1.195312-.574218 2.464844-.574218 3.78125 0 6.964844 5.605468 12.570312 12.566406 12.570312 3.085938 0 5.90625-1.101562 8.089844-2.933594-1.054688-.132812-1.894532-.363281-4.308594-.363281-1.351562 0-4.917969 1.203125-6.25-1.328125-1.035156-2.007812-2.914062-3.609375-4.453125-4.011718-1.308594-.335938-1.667969-1.605469-1.773437-3.125-.128907-1.605469-1.414063-1.644532-2.238282-2.679688-.550781-.714844-.691406-1.488281-1.058594-1.910156zm0 0" fill="url(#j)"/><path d="m15.875 28.035156c-6.960938 0-12.566406-5.605468-12.566406-12.570312 0-.039063 0-.082032 0-.121094.066406 6.902344 5.644531 12.445312 12.566406 12.445312s12.503906-5.542968 12.570312-12.445312v.121094c0 6.964844-5.605468 12.570312-12.570312 12.570312zm0 0" fill-opacity=".196078"/><path d="m15.875 2.894531c-6.960938 0-12.566406 5.605469-12.566406 12.570313v.125c.066406-6.90625 5.644531-12.449219 12.566406-12.449219s12.503906 5.542969 12.570312 12.449219c0-.042969 0-.082032 0-.125 0-6.964844-5.605468-12.570313-12.570312-12.570313zm0 0" fill="#fff" fill-opacity=".392157"/><path d="m3.882812 11.683594c-.375 1.195312-.574218 2.464844-.574218 3.78125v.203125c.019531-1.246094.21875-2.445313.574218-3.574219.367188.421875.507813 1.191406 1.058594 1.90625.824219 1.035156 2.109375 1.078125 2.238282 2.683594.105468 1.519531.464843 2.785156 1.773437 3.121094 1.539063.402343 3.417969 2.007812 4.453125 4.011718 1.332031 2.535156 4.898438 1.332032 6.25 1.332032 2.078125 0 2.988281.167968 3.875.300781.148438-.113281.292969-.230469.433594-.347657-1.054688-.132812-1.894532-.363281-4.308594-.363281-1.351562 0-4.917969 1.203125-6.25-1.328125-1.035156-2.007812-2.914062-3.609375-4.453125-4.011718-1.308594-.335938-1.667969-1.605469-1.773437-3.125-.128907-1.605469-1.414063-1.644532-2.238282-2.679688-.550781-.714844-.691406-1.488281-1.058594-1.910156zm0 0" fill="#fff" fill-opacity=".392157"/><path d="m15.875 2.800781c-7.011719 0-12.660156 5.652344-12.660156 12.664063 0 7.011718 5.648437 12.664062 12.660156 12.664062 7.015625 0 12.664062-5.652344 12.664062-12.664062 0-7.011719-5.648437-12.664063-12.664062-12.664063zm0 .1875c6.914062 0 12.476562 5.5625 12.476562 12.476563 0 6.914062-5.5625 12.476562-12.476562 12.476562-6.910156 0-12.472656-5.5625-12.472656-12.476562 0-6.914063 5.5625-12.476563 12.472656-12.476563zm0 0" fill="#212121"/><path d="m3.96875 11.164062c-.214844.675782-.371094 1.375-.46875 2.097657.09375-.539063.222656-1.066407.382812-1.578125.367188.421875.507813 1.195312 1.058594 1.910156.824219 1.035156 2.109375 1.074219 2.238282 2.679688.105468 1.519531.464843 2.789062 1.773437 3.125 1.539063.402343 3.417969 2.003906 4.453125 4.011718 1.332031 2.53125 4.898438 1.328125 6.25 1.328125 2.414062 0 3.253906.230469 4.308594.363281-.007813.007813-.019532.015626-.027344.023438.183594-.136719.363281-.277344.539062-.425781-1.078124-.128907-1.933593-.363281-4.402343-.363281-1.378907 0-5.019531 1.214843-6.378907-1.339844-1.058593-2.023438-2.976562-3.644532-4.550781-4.046875-1.335937-.34375-1.703125-1.621094-1.808593-3.15625-.128907-1.617188-1.445313-1.660157-2.285157-2.703125-.558593-.722656-.703125-1.5-1.082031-1.925782zm0 0" fill-opacity=".235294"/><path d="m234.780732 706.467978c-22.675 72.276563-34.721094 149.040887-34.721094 228.639586 0 421.140891 338.944015 760.084905 759.848707 760.084905 186.596357 0 357.131255-66.607813 489.165892-177.384637-63.773438-8.03073-114.555991-21.966407-260.526305-21.966407-81.724481 0-297.373181 72.748959-377.916672-80.307293-62.592448-121.40573-176.203648-218.246877-269.265628-242.575263-79.126303-20.313021-100.856512-97.077345-107.233856-188.958336-7.794531-97.077345-85.503647-99.439324-135.341408-162.031773-33.303906-43.224219-41.807031-89.991407-64.009636-115.500782zm0 0" fill="none" stroke="#212121" stroke-width="12.765609" transform="scale(.016538)"/><path d="m9.988281 19.75c.109375.152344.222657.296875.34375.4375h11.089844c.121094-.140625.234375-.285156.34375-.4375zm0 0" fill-opacity=".235294"/></svg>

<?xml version="1.0" encoding="UTF-8"?>
<svg xmlns="http://www.w3.org/2000/svg" xmlns:xlink="http://www.w3.org/1999/xlink" width="32pt" height="32pt" viewBox="0 0 32 32" version="1.1">
<defs>
<radialGradient id="radial0" gradientUnits="userSpaceOnUse" cx="450.90894" cy="189.57936" fx="450.90894" fy="189.57936" r="21.166656" gradientTransform="matrix(0.00000017417,-0.0781325,-0.140638,-0.000000101539,44.523152,63.595332)">
<stop offset="0" style="stop-color:rgb(0%,0%,0%);stop-opacity:0.313725;"/>
<stop offset="0.222222" style="stop-color:rgb(0%,0%,0%);stop-opacity:0.27451;"/>
<stop offset="1" style="stop-color:rgb(0%,0%,0%);stop-opacity:0;"/>
</radialGradient>
<radialGradient id="radial1" gradientUnits="userSpaceOnUse" cx="450.90894" cy="189.57936" fx="450.90894" fy="189.57936" r="21.166656" gradientTransform="matrix(-0.00000017417,0.0781325,0.140638,0.000000101539,-12.770121,-7.527481)">
<stop offset="0" style="stop-color:rgb(0%,0%,0%);stop-opacity:0.313725;"/>
<stop offset="0.222222" style="stop-color:rgb(0%,0%,0%);stop-opacity:0.27451;"/>
<stop offset="1" style="stop-color:rgb(0%,0%,0%);stop-opacity:0;"/>
</radialGradient>
<radialGradient id="radial2" gradientUnits="userSpaceOnUse" cx="450.90894" cy="189.57936" fx="450.90894" fy="189.57936" r="21.166656" gradientTransform="matrix(-0.00000017417,-0.0781325,0.140638,-0.000000101539,-12.770121,63.595332)">
<stop offset="0" style="stop-color:rgb(0%,0%,0%);stop-opacity:0.313725;"/>
<stop offset="0.222222" style="stop-color:rgb(0%,0%,0%);stop-opacity:0.27451;"/>
<stop offset="1" style="stop-color:rgb(0%,0%,0%);stop-opacity:0;"/>
</radialGradient>
<radialGradient id="radial3" gradientUnits="userSpaceOnUse" cx="450.90894" cy="189.57936" fx="450.90894" fy="189.57936" r="21.166656" gradientTransform="matrix(0.00000017417,0.0781325,-0.140638,0.000000101539,44.52315,-7.527482)">
<stop offset="0" style="stop-color:rgb(0%,0%,0%);stop-opacity:0.313725;"/>
<stop offset="0.222222" style="stop-color:rgb(0%,0%,0%);stop-opacity:0.27451;"/>
<stop offset="1" style="stop-color:rgb(0%,0%,0%);stop-opacity:0;"/>
</radialGradient>
<linearGradient id="linear0" gradientUnits="userSpaceOnUse" x1="255.32306" y1="233.5" x2="255.32304" y2="254.66666" gradientTransform="matrix(0.0133601,0,0,0.062506,12.465386,13.438784)">
<stop offset="0" style="stop-color:rgb(0%,0%,0%);stop-opacity:0.27451;"/>
<stop offset="1" style="stop-color:rgb(0%,0%,0%);stop-opacity:0;"/>
</linearGradient>
<linearGradient id="linear1" gradientUnits="userSpaceOnUse" x1="254" y1="-168.66667" x2="254" y2="233.5" >
<stop offset="0" style="stop-color:rgb(72.941176%,40.784314%,78.431373%);stop-opacity:1;"/>
<stop offset="1" style="stop-color:rgb(67.058824%,27.843137%,73.72549%);stop-opacity:1;"/>
</linearGradient>
<linearGradient id="linear2" gradientUnits="userSpaceOnUse" x1="254" y1="233.5" x2="254" y2="-168.66667" gradientTransform="matrix(0.062506,0,0,0.062506,0,13.438783)">
<stop offset="0" style="stop-color:rgb(93.72549%,60.392157%,60.392157%);stop-opacity:1;"/>
<stop offset="1" style="stop-color:rgb(100%,80.392157%,82.352941%);stop-opacity:1;"/>
</linearGradient>
<linearGradient id="linear3" gradientUnits="userSpaceOnUse" x1="960" y1="1695.1182" x2="960" y2="175.11813" gradientTransform="matrix(0.016538,0,0,0.016538,0,0)">
<stop offset="0" style="stop-color:rgb(92.54902%,25.098039%,47.843137%);stop-opacity:1;"/>
<stop offset="1" style="stop-color:rgb(94.117647%,38.431373%,57.254902%);stop-opacity:1;"/>
</linearGradient>
<linearGradient id="linear4" gradientUnits="userSpaceOnUse" x1="960" y1="1695.1182" x2="960" y2="175.11813" gradientTransform="matrix(0.016538,0,0,0.016538,0,0)">
<stop offset="0" style="stop-color:rgb(47.45098%,33.333333%,28.235294%);stop-opacity:1;"/>
<stop offset="1" style="stop-color:rgb(55.294118%,43.137255%,38.823529%);stop-opacity:1;"/>
</linearGradient>
</defs>
<g id="surface1">
<path style=" stroke:none;fill-rule:nonzero;fill:url(#radial0);" d="M 18.191406 28.035156 L 20.839844 28.035156 L 20.839844 26.710938 L 18.191406 26.710938 Z M 18.191406 28.035156 "/>
<path style=" stroke:none;fill-rule:nonzero;fill:url(#radial1);" d="M 13.5625 28.035156 L 10.914062 28.035156 L 10.914062 29.355469 L 13.5625 29.355469 Z M 13.5625 28.035156 "/>
<path style=" stroke:none;fill-rule:nonzero;fill:url(#radial2);" d="M 13.5625 28.035156 L 10.914062 28.035156 L 10.914062 26.710938 L 13.5625 26.710938 Z M 13.5625 28.035156 "/>
<path style=" stroke:none;fill-rule:nonzero;fill:url(#radial3);" d="M 18.191406 28.035156 L 20.839844 28.035156 L 20.839844 29.355469 L 18.191406 29.355469 Z M 18.191406 28.035156 "/>
<path style=" stroke:none;fill-rule:nonzero;fill:url(#linear0);" d="M 13.5625 27.703125 L 18.191406 27.703125 L 18.191406 29.355469 L 13.5625 29.355469 Z M 13.5625 27.703125 "/>
<path style="fill-rule:nonzero;fill:url(#linear1);stroke-width:3;stroke-linecap:round;stroke-linejoin:miter;stroke:rgb(20%,20%,20%);stroke-opacity:1;stroke-miterlimit:4;" d="M 253.975747 -168.691922 C 365.027642 -168.691922 455.081542 -78.638022 455.081542 32.413873 C 455.081542 143.465768 365.027642 233.519669 253.975747 233.519669 C 142.923851 233.519669 52.932445 143.465768 52.932445 32.413873 C 52.932445 -78.638022 142.923851 -168.691922 253.975747 -168.691922 Z M 253.975747 -168.691922 " transform="matrix(0.062506,0,0,0.062506,0,13.438783)"/>
<path style=" stroke:none;fill-rule:nonzero;fill:url(#linear2);" d="M 15.875 8.1875 C 19.894531 8.1875 23.152344 11.445312 23.152344 15.464844 C 23.152344 19.484375 19.894531 22.742188 15.875 22.742188 C 11.859375 22.742188 8.601562 19.484375 8.601562 15.464844 C 8.601562 11.445312 11.859375 8.1875 15.875 8.1875 Z M 15.875 8.1875 "/>
<path style=" stroke:none;fill-rule:nonzero;fill:rgb(100%,100%,100%);fill-opacity:0.392157;" d="M 15.875 8.1875 C 11.84375 8.1875 8.601562 11.433594 8.601562 15.464844 C 8.601562 15.546875 8.601562 15.628906 8.605469 15.714844 C 8.734375 11.796875 11.929688 8.683594 15.875 8.683594 C 19.824219 8.683594 23.019531 11.796875 23.148438 15.714844 C 23.152344 15.628906 23.152344 15.546875 23.152344 15.464844 C 23.152344 11.433594 19.90625 8.1875 15.875 8.1875 Z M 15.875 8.1875 "/>
<path style="fill:none;stroke-width:3;stroke-linecap:round;stroke-linejoin:miter;stroke:rgb(12.941176%,12.941176%,12.941176%);stroke-opacity:1;stroke-miterlimit:4;" d="M 253.975747 -84.012509 C 318.282106 -84.012509 370.402128 -31.892486 370.402128 32.413873 C 370.402128 96.720232 318.282106 148.840255 253.975747 148.840255 C 189.731882 148.840255 137.611859 96.720232 137.611859 32.413873 C 137.611859 -31.892486 189.731882 -84.012509 253.975747 -84.012509 Z M 253.975747 -84.012509 " transform="matrix(0.062506,0,0,0.062506,0,13.438783)"/>
<path style=" stroke:none;fill-rule:nonzero;fill:url(#linear3);" d="M 9.734375 20.117188 L 13.890625 25.941406 C 13.890625 25.941406 16.125 26.914062 18.308594 27.800781 C 22.546875 26.976562 26.007812 24.035156 27.5625 20.117188 Z M 9.734375 20.117188 "/>
<path style=" stroke:none;fill-rule:nonzero;fill:rgb(100%,100%,100%);fill-opacity:0.392157;" d="M 9.734375 20.117188 L 10.042969 20.554688 L 27.378906 20.554688 C 27.441406 20.410156 27.503906 20.261719 27.5625 20.117188 Z M 9.734375 20.117188 "/>
<path style="fill:none;stroke-width:12.765609;stroke-linecap:butt;stroke-linejoin:miter;stroke:rgb(12.941176%,12.941176%,12.941176%);stroke-opacity:1;stroke-miterlimit:4;" d="M 588.605216 1216.419286 L 839.919802 1568.590384 C 839.919802 1568.590384 975.025012 1627.403666 1107.059649 1681.020594 C 1363.334392 1631.182833 1572.605749 1453.3258 1666.612521 1216.419286 Z M 588.605216 1216.419286 " transform="matrix(0.016538,0,0,0.016538,0,0)"/>
<path style=" stroke:none;fill-rule:nonzero;fill:url(#linear4);" d="M 3.882812 11.683594 C 3.507812 12.878906 3.308594 14.148438 3.308594 15.464844 C 3.308594 22.429688 8.914062 28.035156 15.875 28.035156 C 18.960938 28.035156 21.78125 26.933594 23.964844 25.101562 C 22.910156 24.96875 22.070312 24.738281 19.65625 24.738281 C 18.304688 24.738281 14.738281 25.941406 13.40625 23.410156 C 12.371094 21.402344 10.492188 19.800781 8.953125 19.398438 C 7.644531 19.0625 7.285156 17.792969 7.179688 16.273438 C 7.050781 14.667969 5.765625 14.628906 4.941406 13.59375 C 4.390625 12.878906 4.25 12.105469 3.882812 11.683594 Z M 3.882812 11.683594 "/>
<path style=" stroke:none;fill-rule:nonzero;fill:rgb(0%,0%,0%);fill-opacity:0.196078;" d="M 15.875 28.035156 C 8.914062 28.035156 3.308594 22.429688 3.308594 15.464844 C 3.308594 15.425781 3.308594 15.382812 3.308594 15.34375 C 3.375 22.246094 8.953125 27.789062 15.875 27.789062 C 22.796875 27.789062 28.378906 22.246094 28.445312 15.34375 C 28.445312 15.382812 28.445312 15.425781 28.445312 15.464844 C 28.445312 22.429688 22.839844 28.035156 15.875 28.035156 Z M 15.875 28.035156 "/>
<path style=" stroke:none;fill-rule:nonzero;fill:rgb(100%,100%,100%);fill-opacity:0.392157;" d="M 15.875 2.894531 C 8.914062 2.894531 3.308594 8.5 3.308594 15.464844 C 3.308594 15.507812 3.308594 15.546875 3.308594 15.589844 C 3.375 8.683594 8.953125 3.140625 15.875 3.140625 C 22.796875 3.140625 28.378906 8.683594 28.445312 15.589844 C 28.445312 15.546875 28.445312 15.507812 28.445312 15.464844 C 28.445312 8.5 22.839844 2.894531 15.875 2.894531 Z M 15.875 2.894531 "/>
<path style=" stroke:none;fill-rule:nonzero;fill:rgb(100%,100%,100%);fill-opacity:0.392157;" d="M 3.882812 11.683594 C 3.507812 12.878906 3.308594 14.148438 3.308594 15.464844 C 3.308594 15.53125 3.308594 15.601562 3.308594 15.667969 C 3.328125 14.421875 3.527344 13.222656 3.882812 12.09375 C 4.25 12.515625 4.390625 13.285156 4.941406 14 C 5.765625 15.035156 7.050781 15.078125 7.179688 16.683594 C 7.285156 18.203125 7.644531 19.46875 8.953125 19.804688 C 10.492188 20.207031 12.371094 21.8125 13.40625 23.816406 C 14.738281 26.351562 18.304688 25.148438 19.65625 25.148438 C 21.734375 25.148438 22.644531 25.316406 23.53125 25.449219 C 23.679688 25.335938 23.824219 25.21875 23.964844 25.101562 C 22.910156 24.96875 22.070312 24.738281 19.65625 24.738281 C 18.304688 24.738281 14.738281 25.941406 13.40625 23.410156 C 12.371094 21.402344 10.492188 19.800781 8.953125 19.398438 C 7.644531 19.0625 7.285156 17.792969 7.179688 16.273438 C 7.050781 14.667969 5.765625 14.628906 4.941406 13.59375 C 4.390625 12.878906 4.25 12.105469 3.882812 11.683594 Z M 3.882812 11.683594 "/>
<path style=" stroke:none;fill-rule:nonzero;fill:rgb(12.941176%,12.941176%,12.941176%);fill-opacity:1;" d="M 15.875 2.800781 C 8.863281 2.800781 3.214844 8.453125 3.214844 15.464844 C 3.214844 22.476562 8.863281 28.128906 15.875 28.128906 C 22.890625 28.128906 28.539062 22.476562 28.539062 15.464844 C 28.539062 8.453125 22.890625 2.800781 15.875 2.800781 Z M 15.875 2.988281 C 22.789062 2.988281 28.351562 8.550781 28.351562 15.464844 C 28.351562 22.378906 22.789062 27.941406 15.875 27.941406 C 8.964844 27.941406 3.402344 22.378906 3.402344 15.464844 C 3.402344 8.550781 8.964844 2.988281 15.875 2.988281 Z M 15.875 2.988281 "/>
<path style=" stroke:none;fill-rule:nonzero;fill:rgb(0%,0%,0%);fill-opacity:0.235294;" d="M 3.96875 11.164062 C 3.753906 11.839844 3.597656 12.539062 3.5 13.261719 C 3.59375 12.722656 3.722656 12.195312 3.882812 11.683594 C 4.25 12.105469 4.390625 12.878906 4.941406 13.59375 C 5.765625 14.628906 7.050781 14.667969 7.179688 16.273438 C 7.285156 17.792969 7.644531 19.0625 8.953125 19.398438 C 10.492188 19.800781 12.371094 21.402344 13.40625 23.410156 C 14.738281 25.941406 18.304688 24.738281 19.65625 24.738281 C 22.070312 24.738281 22.910156 24.96875 23.964844 25.101562 C 23.957031 25.109375 23.945312 25.117188 23.9375 25.125 C 24.121094 24.988281 24.300781 24.847656 24.476562 24.699219 C 23.398438 24.570312 22.542969 24.335938 20.074219 24.335938 C 18.695312 24.335938 15.054688 25.550781 13.695312 22.996094 C 12.636719 20.972656 10.71875 19.351562 9.144531 18.949219 C 7.808594 18.605469 7.441406 17.328125 7.335938 15.792969 C 7.207031 14.175781 5.890625 14.132812 5.050781 13.089844 C 4.492188 12.367188 4.347656 11.589844 3.96875 11.164062 Z M 3.96875 11.164062 "/>
<path style="fill:none;stroke-width:12.765609;stroke-linecap:butt;stroke-linejoin:miter;stroke:rgb(12.941176%,12.941176%,12.941176%);stroke-opacity:1;stroke-miterlimit:4;" d="M 234.780732 706.467978 C 212.105732 778.744541 200.059638 855.508865 200.059638 935.107564 C 200.059638 1356.248455 539.003653 1695.192469 959.908345 1695.192469 C 1146.504702 1695.192469 1317.0396 1628.584656 1449.074237 1517.807832 C 1385.300799 1509.777102 1334.518246 1495.841425 1188.547932 1495.841425 C 1106.823451 1495.841425 891.174751 1568.590384 810.63126 1415.534132 C 748.038812 1294.128402 634.427612 1197.287255 541.365632 1172.958869 C 462.239329 1152.645848 440.50912 1075.881524 434.131776 984.000533 C 426.337245 886.923188 348.628129 884.561209 298.790368 821.96876 C 265.486462 778.744541 256.983337 731.977353 234.780732 706.467978 Z M 234.780732 706.467978 " transform="matrix(0.016538,0,0,0.016538,0,0)"/>
<path style=" stroke:none;fill-rule:nonzero;fill:rgb(0%,0%,0%);fill-opacity:0.235294;" d="M 9.988281 19.75 C 10.097656 19.902344 10.210938 20.046875 10.332031 20.1875 L 21.421875 20.1875 C 21.542969 20.046875 21.65625 19.902344 21.765625 19.75 Z M 9.988281 19.75 "/>
</g>
</svg>
